X: 17698
T: Holtwood
R: reel
M: 4/4
K: Amajor
a2gf e2e2|f2ed cdec|d2cB cdec|dcBd cBA2|
a2gf e2e2|f2ed cdec|d2cB cdec|d2B2A4:|
B2BB B2B2|ABcA B4|BABc dcde|fedc dcBA|
B2BB B2B2|ABcA B4|BABc dcde|fedc Beee|
B2BB B2B2|ABcA B4|BABc dcde|fedc dcBA|
B2BB B2B2|ABcA B2A2|a2g2 f2e2|d2c2 B2A2||

